inst/assets/svg/wi-raindrops.svg

<?xml version="1.0" encoding="UTF-8"?>
<svg xmlns="http://www.w3.org/2000/svg" xmlns:xlink="http://www.w3.org/1999/xlink" width="30pt" height="30pt" viewBox="0 0 30 30" version="1.1">
<g id="surface821">
<path style=" stroke:none;fill-rule:nonzero;fill:rgb(0%,0%,0%);fill-opacity:1;" d="M 11.011719 12.230469 C 11.011719 11.96875 11.140625 11.640625 11.390625 11.21875 C 11.640625 10.800781 11.890625 10.449219 12.121094 10.179688 C 12.179688 10.109375 12.261719 10.011719 12.351563 9.898438 C 12.441406 9.789063 12.5 9.730469 12.511719 9.71875 L 12.878906 10.148438 C 13.160156 10.460938 13.410156 10.808594 13.640625 11.21875 C 13.871094 11.628906 13.988281 11.960938 13.988281 12.230469 C 13.988281 12.640625 13.851563 13 13.558594 13.289063 C 13.28125 13.578125 12.929688 13.730469 12.511719 13.730469 C 12.101563 13.730469 11.738281 13.578125 11.449219 13.289063 C 11.160156 12.988281 11.011719 12.640625 11.011719 12.230469 Z M 14.128906 16.378906 C 14.128906 16.089844 14.210938 15.761719 14.371094 15.371094 C 14.53125 14.988281 14.730469 14.628906 14.96875 14.308594 C 15.429688 13.699219 15.859375 13.191406 16.28125 12.78125 C 16.320313 12.75 16.410156 12.671875 16.539063 12.539063 L 16.789063 12.78125 C 17.179688 13.148438 17.621094 13.660156 18.109375 14.300781 C 18.371094 14.640625 18.570313 15 18.730469 15.378906 C 18.890625 15.761719 18.96875 16.089844 18.96875 16.378906 C 18.96875 17.070313 18.738281 17.640625 18.269531 18.109375 C 17.800781 18.578125 17.21875 18.808594 16.539063 18.808594 C 15.859375 18.808594 15.289063 18.570313 14.820313 18.101563 C 14.351563 17.628906 14.128906 17.050781 14.128906 16.378906 Z M 15.648438 9.480469 C 15.648438 9.050781 15.980469 8.480469 16.648438 7.78125 L 16.898438 8.058594 C 17.089844 8.28125 17.261719 8.519531 17.410156 8.800781 C 17.558594 9.070313 17.640625 9.300781 17.640625 9.480469 C 17.640625 9.761719 17.539063 9.980469 17.351563 10.171875 C 17.160156 10.351563 16.929688 10.449219 16.648438 10.449219 C 16.359375 10.449219 16.121094 10.359375 15.929688 10.171875 C 15.75 9.980469 15.648438 9.75 15.648438 9.480469 Z M 15.648438 9.480469 "/>
</g>
</svg>

<?xml version="1.0" encoding="utf-8"?>
<!-- Generator: Adobe Illustrator 22.0.1, SVG Export Plug-In . SVG Version: 6.00 Build 0)  -->
<svg version="1.1" id="Layer_1" xmlns="http://www.w3.org/2000/svg" xmlns:xlink="http://www.w3.org/1999/xlink" x="0px" y="0px"
	 viewBox="0 0 30 30" style="enable-background:new 0 0 30 30;" xml:space="preserve">
<path d="M11.01,12.23c0-0.26,0.13-0.59,0.38-1.01c0.25-0.42,0.5-0.77,0.73-1.04c0.06-0.07,0.14-0.17,0.23-0.28s0.15-0.17,0.16-0.18
	l0.37,0.43c0.28,0.31,0.53,0.66,0.76,1.07c0.23,0.41,0.35,0.74,0.35,1.01c0,0.41-0.14,0.77-0.43,1.06
	c-0.28,0.29-0.63,0.44-1.05,0.44c-0.41,0-0.77-0.15-1.06-0.44C11.16,12.99,11.01,12.64,11.01,12.23z M14.13,16.38
	c0-0.29,0.08-0.62,0.24-1.01c0.16-0.38,0.36-0.74,0.6-1.06c0.46-0.61,0.89-1.12,1.31-1.53c0.04-0.03,0.13-0.11,0.26-0.24l0.25,0.24
	c0.39,0.37,0.83,0.88,1.32,1.52c0.26,0.34,0.46,0.7,0.62,1.08s0.24,0.71,0.24,1c0,0.69-0.23,1.26-0.7,1.73
	c-0.47,0.47-1.05,0.7-1.73,0.7c-0.68,0-1.25-0.24-1.72-0.71S14.13,17.05,14.13,16.38z M15.65,9.48c0-0.43,0.33-1,1-1.7l0.25,0.28
	c0.19,0.22,0.36,0.46,0.51,0.74c0.15,0.27,0.23,0.5,0.23,0.68c0,0.28-0.1,0.5-0.29,0.69c-0.19,0.18-0.42,0.28-0.7,0.28
	c-0.29,0-0.53-0.09-0.72-0.28C15.75,9.98,15.65,9.75,15.65,9.48z"/>
</svg>
